!!!SOCIAL_FUNCTION:	songs of ceremonial dances
!!!PDT:	1958
!!!OTL: No_5_Song_of_the_Duck_Dance_(c).krn
!!!REG: Northern California
!!!LANG: Non-Tone
!!!LING_GROUP: Penutian
**kern
*staff1
=1-
*clefF4
*k[b-e-]
*M3/4
16d\LL
16c\
16B-\
16G\JJ
8B-\L
16B-\L
16c\JJ
8B-\L
16B-\Jk
16r
=2
16d\LL
16c\
16B-\
16G\JJ
8G\L
(16G\L
16B-\JJ)
8G\L
16B-\Jk
16r
=3
16d\LL
16c\
16B-\
16G\JJ
8B-\L
(16B-\L
16c\JJ)
8B-\L
16B-\Jk
16r
=4
16d\LL
16c\
16B-\
16G\JJ
8G\L
(16G\L
16B-\JJ)
8G\L
16B-\Jk
16r
=5
16d\LL
16d\
(16d\
16c\JJ)
8B-\L
(16B-\L
16c\JJ)
8B-\L
16B-\Jk
16r
=6
16c\LL
16c\
16B-\
16G\JJ
8G\L
(16G\L
16B-\JJ)
8G\L
16G\Jk
16r
=7
16d\LL
16c\
16B-\
16G\JJ
8B-\L
16c\L
16B-\JJ
8B-\
(32B-\LLL
32G\JJJ)
16r
=8
16d\LL
16c\
16B-\
16G\JJ
8G\L
16G\L
16G\JJ
8G\L
16G\Jk
16r
=9
16d\LL
16c\
16B-\
16c\JJ
8B-\L
16G\L
16B-\JJ
8B-\L
16B-\Jk
16r
=10
16d\LL
16c\
16B-\
16G\JJ
8G\L
(16G\L
16B-\JJ)
8G\L
16B-\Jk
16r
=11
16d\LL
16d\JJ
24d\LL
24c\
24d\JJ
8B-\L
16B-\L
16A\JJ
8B-\L
16B-\Jk
16r
=12
16d\LL
16c\
16B-\
16G\JJ
8G\L
16G\L
16G\JJ
8G\L
16G\Jk
16r
=13
16d\LL
16c\
16B-\
16c\JJ
8B-\L
16c\L
16B-\JJ
8B-\L
16B-\Jk
16r
=14
16d\LL
16c\
16B-\
16G\JJ
8G\L
(16G\L
16B-\JJ)
8G\L
16B-\Jk
16r
=15
16d\LL
16d\
(16d\
16c\JJ)
(16d\LL
16c\)
16B-\
16G\JJ
(16A\LL
16G\)
16G\JJ
16r
=16
16d\LL
16c\
16B-\
16G\JJ
8B-\L
16G\L
16B-\JJ
8G\L
16B-\Jk
16r
=17
16d\LL
16c\
16B-\
16G\JJ
8G\L
16G\L
16B-\JJ
8G\L
16B-\Jk
16r
=18
16d\LL
16c\
16B-\
16c\JJ
8B-\L
16B-\L
16c\JJ
8B-\L
16B-\Jk
16r
=19
16d\LL
16c\
16B-\
16G\JJ
8G\L
16G\L
16B-\JJ
8G\L
16B-\Jk
16r
=20
16d\LL
16d\
(16d\
16c\JJ)
(16d\LL
16c\)
16B-\
16G\JJ
(16B-\LL
16G\)
16G\JJ
16r
=21
16d\LL
16c\
16B-\
16G\JJ
8B-\L
(16G\L
16B-\JJ)
8G\L
16B-\Jk
16r
=22
16d\LL
16c\
16B-\
16c\JJ
8B-\L
16B-\L
16c\JJ
8B-\
8r
==
*-
